dist/static/img/support/01.svg

<svg width="48" height="48" viewBox="0 0 48 48" fill="none" xmlns="http://www.w3.org/2000/svg">
<g clip-path="url(#clip0_1042_2916)">
<path d="M43.3125 1.875H28.2188C27.7011 1.875 27.2812 2.29481 27.2812 2.8125C27.2812 3.33019 27.7011 3.75 28.2188 3.75H43.3125C44.8633 3.75 46.125 5.01169 46.125 6.5625V28.0531H27.7485C29.3265 26.1081 30.2737 23.6315 30.2737 20.9376C30.2737 14.6999 25.1989 9.62512 18.9612 9.62512C12.7236 9.62512 7.64878 14.6999 7.64878 20.9376C7.64878 22.7993 8.10122 24.5574 8.90137 26.1081L6.88444 28.125H1.875V6.5625C1.875 5.01169 3.13669 3.75 4.6875 3.75H19.7812C20.299 3.75 20.7188 3.33019 20.7188 2.8125C20.7188 2.29481 20.299 1.875 19.7812 1.875H4.6875C2.10281 1.875 0 3.97781 0 6.5625V32.0625C0 32.8964 0.226313 33.7174 0.644344 34.4322C-0.320719 35.7818 -0.198469 37.6749 1.01259 38.8862C1.66566 39.5392 2.53378 39.8988 3.45722 39.8988C4.38075 39.8988 5.24887 39.5392 5.90194 38.8862L8.03812 36.75H17.1052L16.2313 40.125H15.1875C13.5333 40.125 12.1875 41.4708 12.1875 43.125C12.1875 44.7792 13.5333 46.125 15.1875 46.125H32.8125C34.4667 46.125 35.8125 44.7792 35.8125 43.125C35.8125 41.4708 34.4667 40.125 32.8125 40.125H31.7687L30.8948 36.75H43.3125C45.8972 36.75 48 34.6472 48 32.0625V6.5625C48 3.97781 45.8972 1.875 43.3125 1.875ZM18.9612 11.5001C24.1651 11.5001 28.3987 15.7337 28.3987 20.9376C28.3987 26.1414 24.1651 30.375 18.9612 30.375C13.7573 30.375 9.52378 26.1414 9.52378 20.9376C9.52378 15.7337 13.7573 11.5001 18.9612 11.5001ZM5.00944 30L2.02781 32.9816C1.92703 32.6898 1.875 32.3809 1.875 32.0625V30H5.00944ZM4.57613 37.5604C3.95944 38.1773 2.95556 38.1773 2.3385 37.5605C1.72163 36.9435 1.72163 35.9396 2.3385 35.3228L9.92541 27.7358C10.5634 28.5817 11.3171 29.3355 12.163 29.9735L4.57613 37.5604ZM33.9375 43.125C33.9375 43.7453 33.4328 44.25 32.8125 44.25H15.1875C14.5672 44.25 14.0625 43.7453 14.0625 43.125C14.0625 42.5047 14.5672 42 15.1875 42H32.8125C33.4328 42 33.9375 42.5047 33.9375 43.125ZM29.8318 40.125H18.1682L19.042 36.75H28.958L29.8318 40.125ZM43.3125 34.875H9.91312L13.7907 30.9974C15.3413 31.7977 17.0993 32.25 18.9612 32.25C21.5374 32.25 23.9147 31.3838 25.8186 29.9281H46.125V32.0625C46.125 33.6133 44.8633 34.875 43.3125 34.875Z" fill="#1F5AFF"/>
<path d="M18.9607 25.8437C22.0682 25.8437 24.8929 24.1299 26.3326 21.3712C26.4744 21.0995 26.4744 20.7755 26.3326 20.5037C24.893 17.745 22.0683 16.0312 18.9607 16.0312C15.8532 16.0312 13.0285 17.745 11.5888 20.5037C11.447 20.7755 11.447 21.0994 11.5888 21.3712C13.0285 24.1299 15.8532 25.8437 18.9607 25.8437ZM18.9607 19.4062C19.8051 19.4062 20.4921 20.0931 20.4921 20.9375C20.4921 21.7819 19.8051 22.4688 18.9607 22.4688C18.1163 22.4688 17.4294 21.7819 17.4294 20.9375C17.4294 20.0931 18.1163 19.4062 18.9607 19.4062ZM24.4225 20.9375C23.6305 22.2083 22.438 23.1445 21.0576 23.6189C21.8539 22.9948 22.3671 22.0252 22.3671 20.9375C22.3671 19.8497 21.8539 18.8801 21.0576 18.256C22.438 18.7304 23.6305 19.6666 24.4225 20.9375ZM16.8638 18.256C16.0675 18.8801 15.5544 19.8497 15.5544 20.9375C15.5544 22.0252 16.0676 22.9948 16.8638 23.6189C15.4834 23.1446 14.2909 22.2083 13.4989 20.9375C14.291 19.6666 15.4835 18.7304 16.8638 18.256Z" fill="#1F5AFF"/>
<path d="M32.5684 13.4209C32.5684 13.9387 32.9881 14.3584 33.5059 14.3584H42.9375C43.4552 14.3584 43.875 13.9387 43.875 13.4209C43.875 12.9032 43.4552 12.4834 42.9375 12.4834H33.5059C32.9881 12.4834 32.5684 12.9032 32.5684 13.4209Z" fill="#1F5AFF"/>
<path d="M42.937 9.8584C43.4547 9.8584 43.8745 9.43859 43.8745 8.9209C43.8745 8.40321 43.4547 7.9834 42.937 7.9834H37.5098C36.9921 7.9834 36.5723 8.40321 36.5723 8.9209C36.5723 9.43859 36.9921 9.8584 37.5098 9.8584H42.937Z" fill="#1F5AFF"/>
<path d="M33.4268 7.9834C33.1802 7.9834 32.9384 8.08362 32.764 8.25809C32.5897 8.43246 32.4902 8.67424 32.4902 8.9209C32.4902 9.16746 32.5896 9.40934 32.764 9.58362C32.9393 9.75799 33.1812 9.8584 33.4268 9.8584C33.6743 9.8584 33.9152 9.75809 34.0896 9.58362C34.2649 9.40934 34.3652 9.16746 34.3652 8.9209C34.3652 8.67424 34.265 8.43246 34.0896 8.25809C33.9162 8.08362 33.6743 7.9834 33.4268 7.9834Z" fill="#1F5AFF"/>
<path d="M43.6002 18.5836C43.7746 18.4093 43.875 18.1674 43.875 17.9209C43.875 17.6742 43.7747 17.4325 43.6002 17.2581C43.4259 17.0837 43.1841 16.9834 42.9375 16.9834C42.6899 16.9834 42.4491 17.0836 42.2747 17.2581C42.1003 17.4325 42 17.6742 42 17.9209C42 18.1675 42.1002 18.4083 42.2747 18.5836C42.4491 18.758 42.6909 18.8584 42.9375 18.8584C43.1841 18.8584 43.4259 18.758 43.6002 18.5836Z" fill="#1F5AFF"/>
<path d="M38.2217 18.8584C38.4682 18.8584 38.7101 18.7581 38.8844 18.5836C39.0588 18.4093 39.1592 18.1674 39.1592 17.9209C39.1592 17.6742 39.0589 17.4325 38.8844 17.2581C38.7101 17.0837 38.4682 16.9834 38.2217 16.9834C37.9741 16.9834 37.7322 17.0836 37.5589 17.2581C37.3845 17.4325 37.2842 17.6734 37.2842 17.9209C37.2842 18.1675 37.3844 18.4093 37.5589 18.5836C37.7322 18.7581 37.9742 18.8584 38.2217 18.8584Z" fill="#1F5AFF"/>
<path d="M34.1687 18.5836C34.343 18.4093 34.4424 18.1674 34.4424 17.9209C34.4424 17.6733 34.3431 17.4325 34.1687 17.2581C33.9943 17.0837 33.7525 16.9834 33.5059 16.9834C33.2584 16.9834 33.0165 17.0836 32.8421 17.2581C32.6678 17.4325 32.5684 17.6734 32.5684 17.9209C32.5684 18.1675 32.6678 18.4093 32.8421 18.5836C33.0174 18.758 33.2584 18.8584 33.5059 18.8584C33.7524 18.8583 33.9942 18.758 34.1687 18.5836Z" fill="#1F5AFF"/>
<path d="M33.5059 23.3584H36.5156C37.0333 23.3584 37.4531 22.9387 37.4531 22.4209C37.4531 21.9032 37.0333 21.4834 36.5156 21.4834H33.5059C32.9881 21.4834 32.5684 21.9032 32.5684 22.4209C32.5684 22.9387 32.9881 23.3584 33.5059 23.3584Z" fill="#1F5AFF"/>
<path d="M39.7031 22.4209C39.7031 22.9387 40.1229 23.3584 40.6406 23.3584H43.7288C44.2464 23.3584 44.6663 22.9387 44.6663 22.4209C44.6663 21.9032 44.2464 21.4834 43.7288 21.4834H40.6406C40.1229 21.4834 39.7031 21.9032 39.7031 22.4209Z" fill="#1F5AFF"/>
<path d="M24 3.75C24.2466 3.75 24.4884 3.64969 24.6627 3.47522C24.8372 3.30094 24.9375 3.05906 24.9375 2.8125C24.9375 2.56594 24.8372 2.32406 24.6627 2.14969C24.4884 1.97522 24.2466 1.875 24 1.875C23.7534 1.875 23.5116 1.97522 23.3372 2.14969C23.1628 2.32406 23.0625 2.56594 23.0625 2.8125C23.0625 3.05906 23.1627 3.30094 23.3372 3.47522C23.5116 3.64969 23.7534 3.75 24 3.75Z" fill="#1F5AFF"/>
</g>
<defs>
<clipPath id="clip0_1042_2916">
<rect width="48" height="48" fill="white"/>
</clipPath>
</defs>
</svg>

<svg width="48" height="48" viewBox="0 0 48 48" fill="none" xmlns="http://www.w3.org/2000/svg"><g clip-path="url(#clip0_1042_2916)" fill="#1F5AFF"><path d="M43.313 1.875H28.218a.938.938 0 000 1.875h15.093a2.816 2.816 0 012.813 2.813v21.49H27.748a11.259 11.259 0 002.526-7.115c0-6.238-5.075-11.313-11.313-11.313-6.237 0-11.312 5.075-11.312 11.313 0 1.861.452 3.62 1.252 5.17l-2.017 2.017H1.875V6.562A2.816 2.816 0 014.688 3.75H19.78a.938.938 0 000-1.875H4.688A4.693 4.693 0 000 6.563v25.5c0 .833.226 1.654.644 2.37a3.463 3.463 0 00.369 4.453A3.435 3.435 0 003.457 39.9c.924 0 1.792-.36 2.445-1.013l2.136-2.136h9.067l-.874 3.375h-1.044c-1.654 0-3 1.346-3 3s1.346 3 3 3h17.626c1.654 0 3-1.346 3-3s-1.346-3-3-3h-1.044l-.874-3.375h12.418A4.693 4.693 0 0048 32.062v-25.5a4.693 4.693 0 00-4.688-4.687zM18.96 11.5c5.204 0 9.438 4.234 9.438 9.438 0 5.203-4.234 9.437-9.438 9.437-5.204 0-9.437-4.234-9.437-9.437 0-5.204 4.233-9.438 9.437-9.438zM5.01 30l-2.981 2.982a2.806 2.806 0 01-.153-.92V30H5.01zm-.433 7.56a1.584 1.584 0 01-2.237 0 1.584 1.584 0 010-2.237l7.586-7.587c.638.846 1.392 1.6 2.238 2.238L4.576 37.56zm29.361 5.565c0 .62-.504 1.125-1.124 1.125H15.186a1.126 1.126 0 01.001-2.25h17.626c.62 0 1.124.505 1.124 1.125zm-4.105-3H18.168l.874-3.375h9.916l.874 3.375zm13.48-5.25h-33.4l3.878-3.878c1.55.8 3.308 1.253 5.17 1.253 2.576 0 4.954-.866 6.858-2.322h20.306v2.134a2.816 2.816 0 01-2.813 2.813z"/><path d="M18.96 25.844a8.292 8.292 0 007.373-4.473.938.938 0 000-.867 8.292 8.292 0 00-7.372-4.473 8.292 8.292 0 00-7.372 4.473.938.938 0 000 .867 8.292 8.292 0 007.372 4.473zm0-6.438a1.532 1.532 0 01.001 3.062 1.533 1.533 0 01-1.532-1.53c0-.845.687-1.532 1.532-1.532zm5.462 1.532a6.421 6.421 0 01-3.364 2.68 3.401 3.401 0 000-5.362 6.421 6.421 0 013.364 2.681zm-7.558-2.682a3.401 3.401 0 000 5.363 6.421 6.421 0 01-3.365-2.681 6.422 6.422 0 013.365-2.682zm15.704-4.836c0 .519.42.938.938.938h9.431a.938.938 0 000-1.875h-9.431a.938.938 0 00-.938.938zm10.369-3.562a.938.938 0 000-1.875H37.51a.938.938 0 000 1.875h5.427zm-9.51-1.875c-.247 0-.489.1-.663.275a.943.943 0 000 1.326.948.948 0 00.663.274.943.943 0 00.938-.937.94.94 0 00-.938-.938zM43.6 18.584a.944.944 0 00.275-.663c0-.247-.1-.488-.275-.663a.944.944 0 00-.663-.275c-.247 0-.488.1-.662.275a.944.944 0 00-.275.663c0 .247.1.487.275.663a.945.945 0 00.663.274c.246 0 .488-.1.662-.274zm-5.378.274c.246 0 .488-.1.662-.274a.944.944 0 00.275-.663c0-.247-.1-.488-.275-.663a.94.94 0 00-1.6.663.94.94 0 00.938.938zm-4.053-.274a.942.942 0 000-1.326.944.944 0 00-.663-.275c-.248 0-.49.1-.664.275a.942.942 0 000 1.326.947.947 0 00.664.274c.246 0 .488-.1.663-.274zm-.663 4.774h3.01a.938.938 0 000-1.875h-3.01a.938.938 0 000 1.875zm6.197-.938c0 .519.42.938.938.938h3.088a.938.938 0 000-1.875H40.64a.938.938 0 00-.938.938zM24 3.75c.247 0 .488-.1.663-.275a.944.944 0 00.274-.663c0-.246-.1-.488-.274-.662A.944.944 0 0024 1.875c-.247 0-.488.1-.663.275a.944.944 0 00-.274.663c0 .246.1.488.274.662A.944.944 0 0024 3.75z"/></g><defs><clipPath id="clip0_1042_2916"><path fill="#fff" d="M0 0h48v48H0z"/></clipPath></defs></svg>
